X:1
T:Scatter Seeds of Kindness
T:Scatter Seeds of Kindness
T:Silas Jones Vail
T:Mrs. Albert Smith, 1870
T:Public Domain Courtesy of the Cyber Hymnal™
T:Public Domain Courtesy of the Cyber Hymnal™
C:Silas Jones Vail
Z:Public Domain
Z:Courtesy of the Cyber Hymnal™
%%score ( 1 2 ) ( 3 4 )
L:1/8
Q:1/4=90
M:2/4
K:G
V:1 treble 
V:2 treble 
V:3 bass 
V:4 bass 
V:1
 DD | [DG][DG] [DG][DG] | [DG]<[DF] [DF]G | [FA][FA] [FA][FB] | G2 G[GA] | [GB][GB] [GB][GB] | %6
w: 1.~Let us|ga- ther up the|sun- beams, Ly- ing|all a- round our|path; Let us|keep the wheat and|
w: 2.~Strange we|ne- ver prize the|mu- sic Till the|sweet- voiced bird is|flown! Strange that|we should slight the|
w: 3.~If we|knew the ba- by|fin- gers Pressed a-|gainst the win- dow|pane, Would be|cold and stiff to-|
w: 4.~Ah! those|lit- tle ice- cold|fin- gers, How they|point our mem- ories|back To the|hast- y words and|
 [GB]<[FA] [FA][GB] | [Ac][Ac] [Ac][Fd] | [GB]2 [GB][Gc] | [Gd][Gd] [Gd][Gd] | [Ac][GB] [FA][EG] | %11
w: ros- es, Cast- ing|out the thorns and|chaff; Let us|find our sweet- est|com- fort In the|
w: vio- lets Till the|love- ly flowers are|gone! Strange that|sum- mer skies and|sun- shine Ne- ver|
w: mor- row— Ne- ver|trou- ble us a-|gain— Would the|bright eyes of our|dar- ling Catch the|
w: act- ions Strewn a-|long our back- ward|track! How those|lit- tle hands re-|mind us, As in|
 [EA][EA] [EA][EB] | [Ec]2 [FA][FA] | [GB][FA] [EG][DF] | [DF]<[CE] [EG][CE] | %15
w: bless- ings of to-|day, With a|pa- tient hand re-|mov- ing All the|
w: seem one half so|fair, As when|win- ter’s snow- y|pin- ions Shake the|
w: frown up- on our|brow? Would the|prints of ros- y|fin- gers Vex us|
w: snow- y grace they|lie, Not to|scat- ter thorns— but|ros- es— For our|
 [B,D][B,D] [CF][CF] | [B,G]3 ||"^Refrain" [DG] | [DF]<[DF] [DF]>[DA] | [DA]<[DG] z [GB] | %20
w: bri- ers from the|way.||||
w: white down in the|air.|Then|scat- ter seeds of|kind- ness, Then|
w: then as they do|now?||||
w: reap- ing by and|by.||||
 [FA]<[FA] [FA]>[Ac] | [Ac]<[GB] z G | [Ge]<[Ge] [Gc]>[Ge] | [Ge]<[Gd] G[GB] | %24
w: ||||
w: scat- ter seeds of|kind- ness, Then|scat- ter seeds of|kind- ness, For our|
w: ||||
w: ||||
"^ad. lib" [EA]<[EA] [DF]>[DF] | !fermata![DG]2 |] %26
w: ||
w: reap- ing by and|by.|
w: ||
w: ||
V:2
 DD | x4 | x3 G | x4 | G2 G x | x4 | x4 | x4 | x4 | x4 | x4 | x4 | x4 | x4 | x4 | x4 | x3 || x | %18
 x4 | x4 | x4 | x3 G | x4 | x2 G x | x4 | x2 |] %26
V:3
 [G,B,][G,B,] | [G,B,][G,B,] [G,B,][G,B,] | [D,B,]<[D,A,] [D,A,][D,B,] | [D,C][D,C] [D,C][D,D] | %4
 [G,B,]2 [G,B,][G,C] | [G,D][G,D] [G,D][G,D] | [D,D]<[D,D] [D,D][D,D] | [D,D][D,D] [D,D][D,D] | %8
 [G,D]2 G,[G,A,] | [G,B,][G,B,] [G,B,][G,B,] | [F,D][G,D] [D,C][E,B,] | %11
 [C,A,][C,A,] [C,A,][B,,^G,] | [A,,A,]2 [D,A,][D,D] | [G,D][D,C] [E,B,][B,,A,] | %14
 [C,G,]<[C,G,] [C,G,][C,G,] | [D,G,][D,G,] [D,A,][D,A,] | G,3 || [G,B,] | %18
 [D,A,]<[D,A,] [D,A,]>[D,C] | [G,C]<[G,B,] z [G,D] | [D,D]<[D,D] [D,D]>[D,D] | %21
 [G,D]<[G,D] z [G,B,] | [C,C]<[C,C] [E,C]>[C,C] | [G,C]<[G,B,] [B,,D][G,,D] | %24
 [C,C]<[C,C] [D,A,]>[D,A,] | !fermata![G,,B,]2 |] %26
V:4
 x2 | x4 | x4 | x4 | x4 | x4 | x4 | x4 | x2 G, x | x4 | x4 | x4 | x4 | x4 | x4 | x4 | G,3 || x | %18
 x4 | x4 | x4 | x4 | x4 | x4 | x4 | x2 |] %26

